assets/images/settings.svg

<?xml version="1.0" encoding="UTF-8"?>
<svg width="152px" height="144px" viewBox="0 0 152 144" version="1.1" xmlns="http://www.w3.org/2000/svg" xmlns:xlink="http://www.w3.org/1999/xlink">
    <!-- Generator: Sketch 52.6 (67491) - http://www.bohemiancoding.com/sketch -->
    <title>settings</title>
    <desc>Created with Sketch.</desc>
    <g id="Page-1" stroke="none" stroke-width="1" fill="none" fill-rule="evenodd">
        <g id="Pixel-2" transform="translate(-224.000000, -4324.000000)">
            <g id="settings" transform="translate(224.000000, 4324.000000)">
                <rect id="Rectangle-Copy-12" fill="#252525" x="0" y="0" width="152" height="144"></rect>
                <path d="M99,75.8333333 L99,68.1666667 L92.8091667,68.1666667 C92.37025,66.24425 91.6131667,64.4483333 90.5935,62.82875 L94.975,58.44725 L89.5508333,53.025 L85.1693333,57.4065 C83.54975,56.3868333 81.75575,55.6278333 79.8333333,55.1908333 L79.8333333,49 L72.1666667,49 L72.1666667,55.1908333 C70.24425,55.6278333 68.4483333,56.38875 66.82875,57.4084167 L62.44725,53.0269167 L57.025,58.44725 L61.4084167,62.8306667 C60.3868333,64.45025 59.62975,66.24425 59.1908333,68.1666667 L53,68.1666667 L53,75.8333333 L59.1908333,75.8333333 C59.62975,77.75575 60.3868333,79.54975 61.4065,81.1693333 L57.025,85.55275 L62.44725,90.975 L66.82875,86.5935 C68.4483333,87.61125 70.24425,88.3721667 72.1666667,88.8091667 L72.1666667,95 L79.8333333,95 L79.8333333,88.8091667 C81.75575,88.3721667 83.54975,87.6131667 85.1693333,86.5935 L89.5508333,90.975 L94.9711667,85.55275 L90.5915833,81.17125 C91.61125,79.5516667 92.37025,77.75575 92.80725,75.8333333 L99,75.8333333 Z M76.5,80 C72.358125,80 69,76.641875 69,72.5 C69,68.358125 72.358125,65 76.5,65 C80.641875,65 84,68.358125 84,72.5 C84,76.641875 80.641875,80 76.5,80 Z" fill="#FFFFFF" fill-rule="nonzero"></path>
            </g>
        </g>
    </g>
</svg>

<svg xmlns="http://www.w3.org/2000/svg" width="152" height="144"><title>settings</title><desc>Created with Sketch.</desc><g fill="none"><g><g><path fill="#252525" d="M0 0h152v144H0z"/><path fill="#fff" fill-rule="nonzero" d="M99 75.83v-7.66h-6.2c-.43-1.93-1.2-3.72-2.2-5.34l4.38-4.38-5.43-5.43-4.38 4.4c-1.62-1.03-3.4-1.8-5.34-2.23V49h-7.66v6.2c-1.93.43-3.72 1.2-5.34 2.2l-4.38-4.37-5.43 5.42 4.4 4.38c-1.03 1.62-1.8 3.4-2.23 5.34H53v7.66h6.2c.43 1.93 1.2 3.72 2.2 5.34l-4.38 4.38 5.43 5.42 4.38-4.38c1.62 1 3.4 1.77 5.34 2.2V95h7.66v-6.2c1.93-.43 3.72-1.2 5.34-2.2l4.38 4.38 5.42-5.43-4.38-4.38c1-1.62 1.77-3.4 2.2-5.34H99zM76.5 80c-4.14 0-7.5-3.36-7.5-7.5 0-4.14 3.36-7.5 7.5-7.5 4.14 0 7.5 3.36 7.5 7.5 0 4.14-3.36 7.5-7.5 7.5z"/></g></g></g></svg>
